!!!COM: John Williams
!!!OTL: Boba Fett Motif
!!!GAW: Star Wars: Episode V: The Empire Strikes Back
!!!ODT: 1980
!!!OCL: Frank Lehman
!!!ENC: Claire Arthur
!!!ENC2: John McNamara
**kern	**harte	**text
*clefFv4	*	*
*k[]	*k[]	*
*M4/4	*M4/4	*
=1-	=1-	=1-
*MM58	*MM58	*
24DD-LL	.	.
24DD-	B-:min(*5)	.
24DD-JJ	.	Melody harmonized exclusively with parallel thirds, no harmonic function given
24DD-LL	.	.
24DD-	.	.
[24DD-JJ	.	.
2DD-]	.	.
8CC	A:min(*5)	.
8r	.	.
=2	=2	=2
2DD-	B-:min(*5)	.
2EE-	C:min(*5)	.
=3	=3	=3
4.FF-	D-:min(*5)	.
16EE-LL	D:min(*5)	.
16FF-JJ	D-:min(*5)	.
2DD-	B-:min(*5)	.
=4	=4	=4
1EE-	C:min(*5)	.
=5	=5	=5
*M2/4	*M2/4	*
4.AAn	F:maj(*5)	.
8r	.	.
=6	=6	=6
*M4/4	*M4/4	*
24DD-LL	.	.
24DD-	B-:min(*5)	.
24DD-JJ	.	.
24DD-LL	.	.
24DD-	.	.
[24DD-JJ	.	.
2DD-]	.	.
8CC	A:min(*5)	.
8r	.	.
=7	=7	=7
4.DD-	B-:min(*5)	.
16CCLL	B:min(*5)	.
16DD-JJ	B-:min(*5)	.
4.EE-	C:min(*5)	.
8EE-	.	.
=8	=8	=8
*M2/4	*M2/4	*
2AAn	F:maj(*5)	.
=	=	=
*-	*-	*-
